SVG-Logos/OCP & RH/Other RH Logos/3scale.svg

<svg xmlns="http://www.w3.org/2000/svg" viewBox="0 0 100 100"><g data-name="Layer 1"><circle cx="50" cy="50" r="50" style="fill:#d71e00" transform="rotate(-45 50 50)"/><path d="M85.36 14.64a50 50 0 0 1-70.72 70.72Z" style="fill:#c21a00"/><path d="M50.25 30.83a2.69 2.69 0 1 0-2.68-2.69 2.65 2.65 0 0 0 2.68 2.69Zm-6.89 8.57a3.35 3.35 0 0 0 3.32 3.34 3.34 3.34 0 0 0 0-6.67 3.35 3.35 0 0 0-3.32 3.33Zm3.92 9.89A2.68 2.68 0 1 0 44.6 52a2.7 2.7 0 0 0 2.68-2.71ZM32.63 29.65a3.26 3.26 0 1 0-3.24-3.26 3.26 3.26 0 0 0 3.24 3.26Zm7.9 4.35a2.77 2.77 0 0 0 0-5.53 2.79 2.79 0 0 0-2.76 2.77A2.85 2.85 0 0 0 40.53 34Zm1.76-9.31a4.4 4.4 0 1 0-4.38-4.4 4.37 4.37 0 0 0 4.38 4.42ZM32.78 49a7 7 0 1 0-7-7 7 7 0 0 0 7 7Zm32.13-7.7a4.23 4.23 0 0 0 4.3 4.31 4.31 4.31 0 1 0-4.3-4.31Zm6.9 10.06a3.08 3.08 0 1 0 3.08-3.09 3.09 3.09 0 0 0-3.08 3.11Zm2.09-16.59a4.31 4.31 0 1 0-4.3-4.31 4.28 4.28 0 0 0 4.3 4.31ZM52.16 45.06a3.65 3.65 0 1 0 3.65-3.66 3.64 3.64 0 0 0-3.65 3.66ZM55 22a3.17 3.17 0 0 0 3.16-3.17 3.23 3.23 0 0 0-3.16-3.2A3.17 3.17 0 0 0 55 22Zm-.47 10.09A5.37 5.37 0 0 0 60 37.54a5.48 5.48 0 1 0-5.45-5.48Zm11.72-6.59a2.69 2.69 0 1 0-2.68-2.69 2.65 2.65 0 0 0 2.68 2.69ZM45.7 63.1a3.42 3.42 0 1 0-3.41-3.42 3.43 3.43 0 0 0 3.41 3.42Zm14 11.19a4.4 4.4 0 1 0 4.38 4.4 4.37 4.37 0 0 0-4.35-4.4Zm2.6-23.78a9.2 9.2 0 1 0 9.16 9.2 9.22 9.22 0 0 0-9.16-9.2ZM50.1 66.77a2.69 2.69 0 1 0 2.68 2.69 2.7 2.7 0 0 0-2.68-2.69Zm31.15-25.65a2.7 2.7 0 0 0-2.68 2.69 2.65 2.65 0 0 0 2.68 2.69 2.69 2.69 0 0 0 0-5.37ZM44.49 76.47a3.73 3.73 0 0 0-3.73 3.74 3.77 3.77 0 1 0 3.73-3.74Zm34.57-19.75a4 4 0 1 0 4 4 4 4 0 0 0-4-4Zm-6 11.78A3.09 3.09 0 0 0 70 71.6a3 3 0 0 0 3.08 3.09 3.09 3.09 0 0 0 0-6.19ZM28.3 68a4.16 4.16 0 0 0-4.14 4.15 4.21 4.21 0 0 0 4.14 4.15 4.15 4.15 0 0 0 0-8.3Zm-8.22-9a3 3 0 1 0 3 3 3.05 3.05 0 0 0-3-3Zm1.84-9.74a3 3 0 1 0 3 3 3.05 3.05 0 0 0-3.01-3.04Zm.45-7.26a3.24 3.24 0 1 0-3.24 3.26A3.26 3.26 0 0 0 22.37 42Zm20.74 28.2a3.8 3.8 0 0 0-3.81-3.74 3.73 3.73 0 0 0-3.73 3.74A3.8 3.8 0 0 0 39.3 74a3.87 3.87 0 0 0 3.81-3.8Zm-5.55-11.77a4.68 4.68 0 0 0-4.62-4.64 4.63 4.63 0 0 0-4.62 4.64 4.58 4.58 0 0 0 4.62 4.64 4.63 4.63 0 0 0 4.62-4.64ZM23.11 33.82a2.52 2.52 0 1 0-2.51-2.52 2.53 2.53 0 0 0 2.51 2.52Z" style="fill:#fff"/></g></svg>

<svg xmlns="http://www.w3.org/2000/svg" viewBox="0 0 100 100"><defs><style>.cls-1{fill:#d71e00;}.cls-2{fill:#c21a00;}.cls-3{fill:#fff;}</style></defs><title>Logo</title><g id="Layer_1" data-name="Layer 1"><circle class="cls-1" cx="50" cy="50" r="50" transform="translate(-20.71 50) rotate(-45)"/><path class="cls-2" d="M85.36,14.64A50,50,0,0,1,14.64,85.36Z"/><path class="cls-3" d="M50.25,30.83a2.69,2.69,0,1,0-2.68-2.69A2.65,2.65,0,0,0,50.25,30.83ZM43.36,39.4a3.35,3.35,0,0,0,3.32,3.34,3.34,3.34,0,0,0,0-6.67A3.35,3.35,0,0,0,43.36,39.4Zm3.92,9.89A2.68,2.68,0,1,0,44.6,52,2.7,2.7,0,0,0,47.28,49.29ZM32.63,29.65a3.26,3.26,0,1,0-3.24-3.26A3.26,3.26,0,0,0,32.63,29.65ZM40.53,34a2.77,2.77,0,0,0,0-5.53,2.79,2.79,0,0,0-2.76,2.77A2.85,2.85,0,0,0,40.53,34Zm1.76-9.31a4.4,4.4,0,1,0-4.38-4.4A4.37,4.37,0,0,0,42.29,24.71ZM32.78,49a7,7,0,1,0-7-7A7,7,0,0,0,32.78,49Zm32.13-7.7a4.23,4.23,0,0,0,4.3,4.31,4.31,4.31,0,1,0-4.3-4.31Zm6.9,10.06a3.08,3.08,0,1,0,3.08-3.09A3.09,3.09,0,0,0,71.81,51.38ZM73.9,34.77a4.31,4.31,0,1,0-4.3-4.31A4.28,4.28,0,0,0,73.9,34.77ZM52.16,45.06a3.65,3.65,0,1,0,3.65-3.66A3.64,3.64,0,0,0,52.16,45.06ZM55,22a3.17,3.17,0,0,0,3.16-3.17A3.23,3.23,0,0,0,55,15.63,3.17,3.17,0,0,0,55,22Zm-.47,10.09A5.37,5.37,0,0,0,60,37.54a5.48,5.48,0,1,0-5.45-5.48ZM66.25,25.5a2.69,2.69,0,1,0-2.68-2.69A2.65,2.65,0,0,0,66.25,25.5ZM45.7,63.1a3.42,3.42,0,1,0-3.41-3.42A3.43,3.43,0,0,0,45.7,63.1Zm14,11.19a4.4,4.4,0,1,0,4.38,4.4A4.37,4.37,0,0,0,59.73,74.29ZM62.3,50.51a9.2,9.2,0,1,0,9.16,9.2A9.22,9.22,0,0,0,62.3,50.51ZM50.1,66.77a2.69,2.69,0,1,0,2.68,2.69A2.7,2.7,0,0,0,50.1,66.77ZM81.25,41.12a2.7,2.7,0,0,0-2.68,2.69,2.65,2.65,0,0,0,2.68,2.69,2.69,2.69,0,0,0,0-5.37ZM44.49,76.47a3.73,3.73,0,0,0-3.73,3.74,3.77,3.77,0,1,0,3.73-3.74ZM79.06,56.72a4,4,0,1,0,4,4A4,4,0,0,0,79.06,56.72Zm-6,11.78A3.09,3.09,0,0,0,70,71.6a3,3,0,0,0,3.08,3.09,3.09,3.09,0,0,0,0-6.19ZM28.3,68a4.16,4.16,0,0,0-4.14,4.15A4.21,4.21,0,0,0,28.3,76.3a4.15,4.15,0,0,0,0-8.3Zm-8.22-9a3,3,0,1,0,3,3A3.05,3.05,0,0,0,20.08,59Zm1.84-9.74a3,3,0,1,0,3,3A3.05,3.05,0,0,0,21.91,49.22ZM22.37,42a3.24,3.24,0,1,0-3.24,3.26A3.26,3.26,0,0,0,22.37,42ZM43.11,70.2a3.8,3.8,0,0,0-3.81-3.74,3.73,3.73,0,0,0-3.73,3.74A3.8,3.8,0,0,0,39.3,74,3.87,3.87,0,0,0,43.11,70.2ZM37.56,58.43a4.68,4.68,0,0,0-4.62-4.64,4.63,4.63,0,0,0-4.62,4.64,4.58,4.58,0,0,0,4.62,4.64A4.63,4.63,0,0,0,37.56,58.43ZM23.11,33.82a2.52,2.52,0,1,0-2.51-2.52A2.53,2.53,0,0,0,23.11,33.82Z"/></g></svg>
